svg/l/SY.svg

<svg width="32" height="24" viewBox="0 0 32 24" fill="none" xmlns="http://www.w3.org/2000/svg">
<g clip-path="url(#clip0_270_67493)">
<rect width="32" height="24" fill="white"/>
<path fill-rule="evenodd" clip-rule="evenodd" d="M0 0H32V24H0V0Z" fill="#F7FCFF"/>
<path fill-rule="evenodd" clip-rule="evenodd" d="M9.0012 13.2471L7.75408 14L8.03854 12.5308L7 11.4313L8.40624 11.3718L9.0012 10L9.59615 11.3718H11L9.96385 12.5308L10.2758 14L9.0012 13.2471Z" fill="#409100"/>
<path fill-rule="evenodd" clip-rule="evenodd" d="M23.0012 13.2471L21.7541 14L22.0385 12.5308L21 11.4313L22.4062 11.3718L23.0012 10L23.5961 11.3718H25L23.9639 12.5308L24.2758 14L23.0012 13.2471Z" fill="#409100"/>
<path fill-rule="evenodd" clip-rule="evenodd" d="M0 0V8H32V0H0Z" fill="#E31D1C"/>
<path fill-rule="evenodd" clip-rule="evenodd" d="M0 16V24H32V16H0Z" fill="#272727"/>
</g>
<defs>
<clipPath id="clip0_270_67493">
<rect width="32" height="24" fill="white"/>
</clipPath>
</defs>
</svg>

<svg width="32" height="24" fill="none" xmlns="http://www.w3.org/2000/svg">
  <mask id="a" maskUnits="userSpaceOnUse" x="0" y="0" width="32" height="24">
    <path fill="#fff" d="M0 0h32v24H0z"/>
  </mask>
  <g mask="url(#a)" fill-rule="evenodd" clip-rule="evenodd">
    <path d="M0 0h32v24H0V0z" fill="#F7FCFF"/>
    <path d="M9.001 13.247L7.754 14l.285-1.47L7 11.432l1.406-.06L9.001 10l.595 1.372H11L9.964 12.53l.312 1.47L9 13.247zm14 0L21.754 14l.284-1.47L21 11.432l1.406-.06.595-1.371.595 1.372H25l-1.036 1.159.312 1.469L23 13.247z" fill="#409100"/>
    <path d="M0 0v8h32V0H0z" fill="#E31D1C"/>
    <path d="M0 16v8h32v-8H0z" fill="#272727"/>
  </g>
</svg>
